X: 8700
T: Crow's Nest
R: reel
M: 4/4
K: Edorian
FA|B2Ad BEAF|GFGA BcdB|{d}BAFB AD~D2|DEFA dfed|
B2Ad BEAF|GFGA (3Bcd ef|[B2g2] fg egfe|dBAF E2:|
FA|Beef g2fe|dB~B2 dfaf|eB ~B2 egfe|dBAF EFGA|
Beef g2fe|dB~B2 dfaf|g2fg egfe|dBAF E2FA||
Beef g2fe|dB~B2 dfaf|eB~B2 egfe|dBAd BEFA|
BABd efge|fedc dfaf|bgaf g2fe|dBAF E2||

